X:1
T:The Flannel Jacket
T:The Peeler's Jacket
R:reel
M:4/4
L:1/8
K:G
G2BG DGBG | FGAB c2Bc | dgfg d2eg | fdcA BGAF |
G2BG dGBG | FGAB c2Bc | dg (3gfg d2eg | fdcA BGG2 ::
g3f d2ef | g3a bgaf | gagf d2eg | fdcA BGAd |
g3f d2ef | g3a bgaf | gagf d2eg | fdcA BGG2 :|
